X: 77
T: Cotillon
%R: jig
B: Stewart "A Select Collection of Airs, Jigs, Marches and Reels", ca.1784, p.37 #77
F: http://imslp.org/wiki/A_Select_Collection_of_Airs,_Jigs,_Marches_and_Reels_%28Various%29
Z: 2017 John Chambers <jc:trillian.mit.edu>
M: 6/8
L: 1/8
K: Am
A |\
cdc BA^G | A2A A2f | edc Bed | cBc A2A |\
cdc BA^G | A2A A2g | f2e d^cd | e3- e2 :|
|: e |\
g2d d2f | e2c c2e | edc TB2A | ^GAB E2e |\
g2d d2f | e2c c2e | edc BA^G | A2A A2 :|
